svg/sinatra.svg

<svg viewBox="0 0 20 20" xmlns="http://www.w3.org/2000/svg">
<rect width="100%" height="100%" fill="#CEC5B5"/>
<path d="M4.40022 8.65239C4.7423 8.11448 5.00737 7.53132 5.18772 6.9199C5.34014 5.96971 5.68879 5.06168 6.21146 4.25366C6.57164 4.01438 6.97907 3.85538 7.40611 3.78745C7.83315 3.71951 8.26981 3.74422 8.68645 3.85991C10.3822 4.07129 12.0621 4.39449 13.7152 4.82741C14.4914 5.09741 15.4927 5.6149 15.4364 6.81865V7.4599C16.0648 7.5354 16.6716 7.73668 17.2205 8.05173C17.7694 8.36678 18.2492 8.78914 18.6314 9.29364C19.4077 10.4861 18.9352 11.9486 17.4277 13.0849C16.111 13.8601 14.6904 14.4434 13.2089 14.8174C11.2369 15.3721 9.19323 15.63 7.14521 15.5824C5.01897 15.4699 2.36398 15.1549 1.21648 13.2199C1.21648 13.2199 -0.23476 10.4074 4.37772 8.71989L4.40022 8.65239ZM15.4027 9.07989C15.4027 9.07989 15.4027 9.14739 15.3464 9.19239C15.0388 9.57855 14.6375 9.8795 14.1806 10.0666C13.7237 10.2537 13.2265 10.3206 12.7364 10.2611H8.23646C5.52522 10.2611 4.68147 9.50739 4.46772 8.95614V8.84364V8.95614L4.25397 11.0036C4.25397 11.9374 6.67271 12.6911 9.78895 12.6911C12.9052 12.6911 15.5827 12.2524 15.5827 11.0036V9.20364C15.5039 9.14739 15.4927 9.07989 15.4477 9.07989H15.4027Z" fill="white"/>
</svg>

<svg xmlns="http://www.w3.org/2000/svg" viewBox="0 0 20 20">
  <rect width="100%" height="100%" fill="#CEC5B5"/>
  <path fill="#fff" d="M4.4 8.65c.34-.54.6-1.12.79-1.73.15-.95.5-1.86 1.02-2.67a3.01 3.01 0 0 1 2.48-.39c1.7.21 3.37.53 5.03.97.77.27 1.77.78 1.72 1.99v.64a4.71 4.71 0 0 1 3.2 1.83c.77 1.2.3 2.66-1.21 3.8a16.07 16.07 0 0 1-4.22 1.73c-1.97.55-4.02.81-6.06.76-2.13-.11-4.79-.43-5.93-2.36 0 0-1.45-2.81 3.16-4.5l.02-.07Zm11 .43s0 .07-.05.11a2.9 2.9 0 0 1-2.61 1.07h-4.5c-2.71 0-3.56-.75-3.77-1.3v-.12.12L4.25 11c0 .94 2.42 1.7 5.54 1.7s5.8-.45 5.8-1.7V9.2c-.09-.05-.1-.12-.14-.12h-.05Z"/>
</svg>
